X: 05065
T: MY MOTHER'S WALTZ
C: Bob McQuillen 4 Nov 81
B: Bob's Note Book 5 #65
%R: waltz
Z: 2021 John Chambers <jc:trillian.mit.edu>
M: 3/4
L: 1/8
K: Em
B,D \
| E2 B,2 EF | GF E2 GA | B3 A B2 | G4 ef || g3 f e2 | d2 B2 G2 | A3 B AG | F2 E2 D2 |
| E2 B,2 EF | G2 E2 GA | B3 A B2 | G3 E D2 || B,2 A,2 B,2 | D3 B, D2 | E6- | E4 |]
[| ef \
| g2 ed eg | f2d2 ed | BA G2 B2 | A4 GA || B2 GA Bd | ed B2 GB | (3(ABA) G3 E | D4 ED |
| B,2 E2 EF | GF E2 GA | Bd ef ga | b2 e2 ge || d2 d2 ed | B2 A2 BA | G2 E3 D | E6 |]
%%begintext align
%% With much love
%% and so many thanks to my dear mother,
%% Eleanore L. Campbell, of Peterborough,
%% New Hampshire, whose help I appreciate
%% so greatly -
%%endtext

%%sep 1 1 500

%%sep 1 1 500

